X: 35027
T: Rollicking Boys Of Tandragee, The
R: jig
M: 6/8
K: Eminor
BAB EEE|BAB d2B|BAF D2E|FED FGA|
BAB EEE|BAB def|edB AFA|BEE EFA:|
|:B2e efe|dfa afd|efe dcd|B2d dcd|
B2e efe|dfa afd|edB AFA|BEE EFA:|

